dist/img/svg/ic_step1.svg

<svg width="64" height="64" viewBox="0 0 64 64" fill="none" xmlns="http://www.w3.org/2000/svg"><path d="M15 10a1 1 0 100-2 1 1 0 000 2zm-4 0a1 1 0 100-2 1 1 0 000 2zm-4 0a1 1 0 100-2 1 1 0 000 2zm54 4H3a1 1 0 010-2h58a1 1 0 010 2z" fill="#fff"/><path d="M3 44a1 1 0 01-1-1V7c0-1.654 1.346-3 3-3h54c1.654 0 3 1.346 3 3v18a1 1 0 01-2 0V7c0-.55-.448-1-1-1H5c-.552 0-1 .45-1 1v36a1 1 0 01-1 1zm41 18H21a1 1 0 010-2h2c1.654 0 3-1.346 3-3v-2a1 1 0 012 0v2a4.978 4.978 0 01-1.002 3h10.004A4.978 4.978 0 0136 57v-6a1 1 0 012 0v6c0 1.654 1.346 3 3 3h3a1 1 0 010 2z" fill="#fff"/><path d="M37 52H5c-1.654 0-3-1.346-3-3v-6a1 1 0 011-1h28a1 1 0 010 2H4v5c0 .55.448 1 1 1h32a1 1 0 010 2zm0-24h-2a1 1 0 010-2h2a1 1 0 010 2zm18-8H35a1 1 0 010-2h20a1 1 0 010 2zm0 4H35a1 1 0 010-2h20a1 1 0 010 2zm-40 4H9a1 1 0 010-2h6a1 1 0 010 2zm14-8H9a1 1 0 010-2h20a1 1 0 010 2zm0 4H9a1 1 0 010-2h20a1 1 0 010 2z" fill="#fff"/><path d="M48 54c-7.72 0-14-6.282-14-14s6.28-14 14-14c2.704 0 5.326.772 7.584 2.23a.999.999 0 11-1.086 1.678A11.95 11.95 0 0048 28c-6.618 0-12 5.382-12 12s5.382 12 12 12 12-5.382 12-12c0-1.284-.202-2.546-.598-3.754a1 1 0 011.9-.626c.462 1.412.698 2.884.698 4.38 0 7.718-6.28 14-14 14z" fill="#fff"/><path d="M47 45.398h-.024a1.006 1.006 0 01-.746-.36l-5-6a1.005 1.005 0 01.128-1.41 1.005 1.005 0 011.41.128l4.266 5.122 12.43-13.73a1.001 1.001 0 011.412-.062c.406.374.434 1.006.06 1.414l-13.2 14.574a.99.99 0 01-.736.324z" fill="#fff"/></svg>

<svg width="64" height="64" viewBox="0 0 64 64" fill="none" xmlns="http://www.w3.org/2000/svg">
<path d="M15 10C15.5523 10 16 9.55228 16 9C16 8.44772 15.5523 8 15 8C14.4477 8 14 8.44772 14 9C14 9.55228 14.4477 10 15 10Z" fill="white"/>
<path d="M11 10C11.5523 10 12 9.55228 12 9C12 8.44772 11.5523 8 11 8C10.4477 8 10 8.44772 10 9C10 9.55228 10.4477 10 11 10Z" fill="white"/>
<path d="M7 10C7.55228 10 8 9.55228 8 9C8 8.44772 7.55228 8 7 8C6.44772 8 6 8.44772 6 9C6 9.55228 6.44772 10 7 10Z" fill="white"/>
<path d="M61 14H3C2.448 14 2 13.552 2 13C2 12.448 2.448 12 3 12H61C61.552 12 62 12.448 62 13C62 13.552 61.552 14 61 14Z" fill="white"/>
<path d="M3 44C2.448 44 2 43.552 2 43V7C2 5.346 3.346 4 5 4H59C60.654 4 62 5.346 62 7V25C62 25.552 61.552 26 61 26C60.448 26 60 25.552 60 25V7C60 6.45 59.552 6 59 6H5C4.448 6 4 6.45 4 7V43C4 43.552 3.552 44 3 44Z" fill="white"/>
<path d="M44 62H21C20.448 62 20 61.552 20 61C20 60.448 20.448 60 21 60H23C24.654 60 26 58.654 26 57V55C26 54.448 26.448 54 27 54C27.552 54 28 54.448 28 55V57C28 58.126 27.626 59.164 26.998 60H37.002C36.374 59.164 36 58.126 36 57V51C36 50.448 36.448 50 37 50C37.552 50 38 50.448 38 51V57C38 58.654 39.346 60 41 60H44C44.552 60 45 60.448 45 61C45 61.552 44.552 62 44 62Z" fill="white"/>
<path d="M37 52H5C3.346 52 2 50.654 2 49V43C2 42.448 2.448 42 3 42H31C31.552 42 32 42.448 32 43C32 43.552 31.552 44 31 44H4V49C4 49.55 4.448 50 5 50H37C37.552 50 38 50.448 38 51C38 51.552 37.552 52 37 52Z" fill="white"/>
<path d="M37 28H35C34.448 28 34 27.552 34 27C34 26.448 34.448 26 35 26H37C37.552 26 38 26.448 38 27C38 27.552 37.552 28 37 28Z" fill="white"/>
<path d="M55 20H35C34.448 20 34 19.552 34 19C34 18.448 34.448 18 35 18H55C55.552 18 56 18.448 56 19C56 19.552 55.552 20 55 20Z" fill="white"/>
<path d="M55 24H35C34.448 24 34 23.552 34 23C34 22.448 34.448 22 35 22H55C55.552 22 56 22.448 56 23C56 23.552 55.552 24 55 24Z" fill="white"/>
<path d="M15 28H9C8.448 28 8 27.552 8 27C8 26.448 8.448 26 9 26H15C15.552 26 16 26.448 16 27C16 27.552 15.552 28 15 28Z" fill="white"/>
<path d="M29 20H9C8.448 20 8 19.552 8 19C8 18.448 8.448 18 9 18H29C29.552 18 30 18.448 30 19C30 19.552 29.552 20 29 20Z" fill="white"/>
<path d="M29 24H9C8.448 24 8 23.552 8 23C8 22.448 8.448 22 9 22H29C29.552 22 30 22.448 30 23C30 23.552 29.552 24 29 24Z" fill="white"/>
<path d="M48 54C40.28 54 34 47.718 34 40C34 32.282 40.28 26 48 26C50.704 26 53.326 26.772 55.584 28.23C56.048 28.53 56.18 29.148 55.88 29.612C55.58 30.072 54.964 30.212 54.498 29.908C52.566 28.66 50.318 28 48 28C41.382 28 36 33.382 36 40C36 46.618 41.382 52 48 52C54.618 52 60 46.618 60 40C60 38.716 59.798 37.454 59.402 36.246C59.23 35.72 59.516 35.156 60.04 34.984C60.564 34.808 61.13 35.098 61.302 35.62C61.764 37.032 62 38.504 62 40C62 47.718 55.72 54 48 54Z" fill="white"/>
<path d="M47 45.3981C46.992 45.3981 46.984 45.3981 46.976 45.3981C46.686 45.3901 46.416 45.2601 46.23 45.0381L41.23 39.0381C40.878 38.6121 40.936 37.9821 41.358 37.6281C41.784 37.2761 42.412 37.3341 42.768 37.7561L47.034 42.8781L59.464 29.1481C59.84 28.7401 60.472 28.7161 60.876 29.0861C61.282 29.4601 61.31 30.0921 60.936 30.5001L47.736 45.0741C47.546 45.2821 47.282 45.3981 47 45.3981Z" fill="white"/>
</svg>
